assets/illustrations/default/professional-6.svg

<svg xmlns="http://www.w3.org/2000/svg" width="1080" height="1081" fill="none"><path fill="#141414" d="m485.549 139.168-80.54 9.737c-15.184 1.816-27.397 13.534-29.873 28.718l-33.833 201.846c-3.301 19.475 10.397 37.629 29.872 39.94l126.422 15.844zM615.768 139.168l80.541 9.737c15.183 1.816 27.396 13.534 29.872 28.718l33.669 201.846c3.301 19.475-10.398 37.629-29.873 39.94l-126.422 15.844z"/><path fill="#F5F5F5" d="m784.275 806.599-10.068-51.658h119.656l28.222 134.014h-.165c1.32 6.932 2.145 14.029 2.145 21.291 0 59.745-48.522 108.264-108.267 108.264S707.53 969.991 707.53 910.246c.165-48.853 32.514-90.113 76.745-103.647M299.382 806.599l10.068-51.658H189.794l-28.222 134.014h.165c-1.32 6.932-2.146 14.029-2.146 21.291 0 59.745 48.523 108.264 108.268 108.264s108.267-48.519 108.267-108.264c-.165-48.853-32.513-90.113-76.744-103.647"/><path fill="#0096FA" d="m774.538 455.721-156.46-35.319h-156.46l-156.459 35.319c-49.348 11.058-87.637 50.008-98.2 99.521L152 815.347h775.367l-54.959-260.105c-10.068-49.513-48.523-88.298-97.87-99.521"/><path fill="url(#a)" d="m360.119 643.539-26.572 171.809h190.788z"/><path fill="url(#b)" d="m719.745 643.539 26.407 171.809H555.528z"/><path fill="#1968F0" d="M591.672 773.259h81.696c4.621 0 8.252-3.631 8.252-8.253v-97.704h-98.2v97.704c0 4.622 3.631 8.253 8.252 8.253"/><path fill="#F8BC9A" d="M668.582 53.514H486.706l-13.864 13.863V409.51h134.344v-54.794h61.396l13.863-13.864V67.542z"/><path fill="#141414" d="m486.706 53.514-13.863 13.863-.99 156.79.99.66 138.8-139.295 70.803 85.491V67.377l-13.864-13.863z"/><path fill="#F8BC9A" d="M456.336 279.622h38.125v-59.745h-51.659v46.212c0 7.427 6.107 13.533 13.534 13.533"/><path fill="url(#c)" d="M504.035 279.621h-31.193v72.619h31.193z"/><path fill="url(#d)" d="M559.653 373.695h47.533v-18.98h-47.533z"/><path fill="url(#e)" d="M607.02 417.596v-43.901H472.676v43.901l-21.786 5.612 81.696 88.462c3.961 4.291 10.563 4.291 14.524 0l81.695-88.462z"/><path fill="#F06305" fill-rule="evenodd" d="M627.811 202.917a2.477 2.477 0 0 1 3.262 1.273l30.697 69.977a2.476 2.476 0 0 1-2.267 3.471h-33.668a2.476 2.476 0 1 1 0-4.952h29.879l-29.176-66.507a2.476 2.476 0 0 1 1.273-3.262" clip-rule="evenodd" opacity=".45"/><path fill="url(#f)" d="m458.153 732.497-110.908-5.941-12.874 83.346 34.329 18.485c16.669 6.106 34.329 8.252 51.988 6.436l51.493-5.281z"/><path fill="url(#g)" d="m783.286 1013.4-338.17-122.627c-3.301-1.155-5.447-4.291-5.447-7.757V726.061c0-5.611 5.281-9.572 10.563-7.922L783.121 818.65"/><path fill="url(#h)" d="m596.127 754.61 137.315-21.621 11.388 73.939-50.008 33.834c-15.844 7.757-33.338 11.717-50.998 11.717h-51.823z"/><path fill="url(#i)" d="m300.373 1013.4 338.171-122.627c3.301-1.155 5.446-4.291 5.446-7.757V726.061c0-5.611-5.281-9.572-10.562-7.922L300.538 818.65"/><mask id="j" width="407" height="237" x="336" y="347" maskUnits="userSpaceOnUse" style="mask-type:luminance"><path fill="#fff" d="M471.357 479.484h-135.17l1.486-127.743h134.674zM742.355 347.12H607.186v236.34h135.169z"/></mask><g mask="url(#j)"><path fill="#072F73" fill-rule="evenodd" d="M539.85 390.031c-74.579 0-136.325 70.5-136.325 159.596h-11.553c0-93.771 65.337-171.148 147.878-171.148 82.544 0 147.877 77.546 147.877 171.148v42.746h-11.553v-42.746c0-88.935-61.749-159.596-136.324-159.596" clip-rule="evenodd"/></g><path fill="#E0E0E0" d="M681.619 649.48c21.238 0 38.455-17.217 38.455-38.455s-17.217-38.455-38.455-38.455-38.455 17.217-38.455 38.455 17.217 38.455 38.455 38.455"/><path fill="#F5F5F5" d="M681.619 632.15c11.667 0 21.125-9.458 21.125-21.125s-9.458-21.126-21.125-21.126-21.126 9.459-21.126 21.126 9.459 21.125 21.126 21.125"/><path fill="#F5F5F5" fill-rule="evenodd" d="M350.307 553.198c5.572-25.34 29.472-42.41 55.347-39.356 25.877 3.055 45.111 25.167 44.572 51.22l-8.251-.17c.451-21.81-15.634-40.298-37.289-42.854-21.657-2.557-41.658 11.73-46.319 32.932z" clip-rule="evenodd"/><path fill="#072F73" fill-rule="evenodd" d="M353.482 513.233c5.753-26.167 30.434-43.794 57.152-40.64 26.722 3.155 46.585 25.991 46.028 52.893v.018l-2.805 117.983v.011c-.221 10.796-7.538 20.234-17.857 23.244l-.021.006-27.562 7.922-3.192-11.104 27.541-7.915.009-.003c5.516-1.613 9.417-6.691 9.531-12.392l.001-.022 2.805-117.987v-.006c.43-20.958-15.025-38.718-35.832-41.175-20.811-2.456-40.029 11.27-44.512 31.638l-.002.01-24.922 115.367-.005.022c-1.239 5.519 1.327 11.262 6.46 14.178l24.926 14.196-5.718 10.039-24.916-14.19c-9.384-5.332-14.409-16.081-12.03-26.729l.005-.024z" clip-rule="evenodd"/><path fill="#072F73" d="M364.406 675.555c7.748 0 14.029-6.281 14.029-14.028s-6.281-14.029-14.029-14.029-14.029 6.281-14.029 14.029c0 7.747 6.281 14.028 14.029 14.028M411.279 681.001c7.747 0 14.028-6.28 14.028-14.028s-6.281-14.029-14.028-14.029-14.029 6.281-14.029 14.029 6.281 14.028 14.029 14.028"/><path fill="#35DE90" fill-rule="evenodd" d="m453.101 435.274-7.716 9.678c-8.882 11.141-16.315 24.846-21.192 35.543l-5.134 11.263-22.526-10.269 5.134-11.263c5.356-11.749 13.768-27.421 24.361-40.707l7.716-9.678z" clip-rule="evenodd"/><path fill="#35DE90" fill-rule="evenodd" d="M366.913 479.193c12.048-9.971 27.91-15.205 44.595-13.327l.068.007.067.008c18.531 2.291 34.245 12.939 43.272 28.054l6.347 10.627-21.254 12.694-6.347-10.627c-5.156-8.633-14.171-14.812-24.988-16.17-9.696-1.072-18.895 1.946-25.976 7.806l-9.536 7.892-15.784-19.072z" clip-rule="evenodd"/><defs><linearGradient id="a" x1="452.815" x2="314.504" y1="720.487" y2="836.76" gradientUnits="userSpaceOnUse"><stop offset=".069" stop-color="#0096FA"/><stop offset=".337" stop-color="#0274CE"/><stop offset=".761" stop-color="#06438D"/><stop offset=".962" stop-color="#072F73"/></linearGradient><linearGradient id="b" x1="629.36" x2="764.242" y1="722.73" y2="832.351" gradientUnits="userSpaceOnUse"><stop offset=".069" stop-color="#0096FA"/><stop offset=".337" stop-color="#0274CE"/><stop offset=".761" stop-color="#06438D"/><stop offset=".962" stop-color="#072F73"/></linearGradient><linearGradient id="c" x1="516.332" x2="436.923" y1="327.717" y2="294.27" gradientUnits="userSpaceOnUse"><stop stop-color="#F8BC9A" stop-opacity="0"/><stop offset=".162" stop-color="#F8BA96" stop-opacity=".162"/><stop offset=".326" stop-color="#F7B28A" stop-opacity=".326"/><stop offset=".492" stop-color="#F6A675" stop-opacity=".492"/><stop offset=".658" stop-color="#F59559" stop-opacity=".658"/><stop offset=".825" stop-color="#F37F34" stop-opacity=".825"/><stop offset=".99" stop-color="#F06508" stop-opacity=".99"/><stop offset="1" stop-color="#F06305"/></linearGradient><linearGradient id="d" x1="563.47" x2="604.468" y1="393.397" y2="333.495" gradientUnits="userSpaceOnUse"><stop stop-color="#F8BC9A" stop-opacity="0"/><stop offset=".162" stop-color="#F8BA96" stop-opacity=".162"/><stop offset=".326" stop-color="#F7B28A" stop-opacity=".326"/><stop offset=".492" stop-color="#F6A675" stop-opacity=".492"/><stop offset=".658" stop-color="#F59559" stop-opacity=".658"/><stop offset=".825" stop-color="#F37F34" stop-opacity=".825"/><stop offset=".99" stop-color="#F06508" stop-opacity=".99"/><stop offset="1" stop-color="#F06305"/></linearGradient><linearGradient id="e" x1="540.442" x2="539.609" y1="527.53" y2="372.61" gradientUnits="userSpaceOnUse"><stop offset=".124" stop-color="#E0E0E0"/><stop offset="1" stop-color="#F5F5F5"/></linearGradient><linearGradient id="f" x1="334.765" x2="561.623" y1="775.831" y2="794.781" gradientUnits="userSpaceOnUse"><stop stop-color="#F8BC9A"/><stop offset=".249" stop-color="#F6BB9A"/><stop offset=".389" stop-color="#EEB698"/><stop offset=".501" stop-color="#E0AE96"/><stop offset=".599" stop-color="#CCA293"/><stop offset=".687" stop-color="#B3938F"/><stop offset=".769" stop-color="#93818A"/><stop offset=".846" stop-color="#6E6B84"/><stop offset=".918" stop-color="#43527D"/><stop offset=".985" stop-color="#133675"/><stop offset="1" stop-color="#072F73"/></linearGradient><linearGradient id="g" x1="501.334" x2="730.424" y1="703.224" y2="1013.3" gradientUnits="userSpaceOnUse"><stop stop-color="#F5F5F5"/><stop offset=".089" stop-color="#EBEBEB"/><stop offset=".155" stop-color="#E0E0E0"/><stop offset=".602" stop-color="#EEE"/><stop offset=".991" stop-color="#F5F5F5"/></linearGradient><linearGradient id="h" x1="779.114" x2="558.644" y1="783.685" y2="806.545" gradientUnits="userSpaceOnUse"><stop offset=".351" stop-color="#F8BC9A"/><stop offset=".455" stop-color="#F5BA99"/><stop offset=".541" stop-color="#EAB498"/><stop offset=".621" stop-color="#D9AA95"/><stop offset=".697" stop-color="#C19C91"/><stop offset=".77" stop-color="#A1898C"/><stop offset=".842" stop-color="#7B7386"/><stop offset=".912" stop-color="#4D587E"/><stop offset=".978" stop-color="#193A76"/><stop offset="1" stop-color="#072F73"/></linearGradient><linearGradient id="i" x1="363.818" x2="605.464" y1="802.882" y2="946.932" gradientUnits="userSpaceOnUse"><stop offset=".165" stop-color="#F5F5F5"/><stop offset=".489" stop-color="#EDEDED"/><stop offset=".813" stop-color="#E0E0E0"/></linearGradient></defs></svg>

<svg width="1080" height="1081" viewBox="0 0 1080 1081" fill="none" xmlns="http://www.w3.org/2000/svg">
<path d="M485.549 139.168L405.009 148.905C389.825 150.721 377.612 162.439 375.136 177.623L341.303 379.469C338.002 398.944 351.7 417.098 371.175 419.409L497.597 435.253L485.549 139.168Z" fill="#141414"/>
<path d="M615.768 139.168L696.309 148.905C711.492 150.721 723.705 162.439 726.181 177.623L759.85 379.469C763.151 398.944 749.452 417.098 729.977 419.409L603.555 435.253L615.768 139.168Z" fill="#141414"/>
<path d="M784.275 806.599L774.207 754.941H893.863L922.085 888.955H921.92C923.24 895.887 924.065 902.984 924.065 910.246C924.065 969.991 875.543 1018.51 815.798 1018.51C756.053 1018.51 707.53 969.991 707.53 910.246C707.695 861.393 740.044 820.133 784.275 806.599Z" fill="#F5F5F5"/>
<path d="M299.382 806.599L309.45 754.941H189.794L161.572 888.955H161.737C160.417 895.887 159.591 902.984 159.591 910.246C159.591 969.991 208.114 1018.51 267.859 1018.51C327.604 1018.51 376.126 969.991 376.126 910.246C375.961 861.393 343.613 820.133 299.382 806.599Z" fill="#F5F5F5"/>
<path d="M774.538 455.721L618.078 420.402H539.848H461.618L305.159 455.721C255.811 466.779 217.522 505.729 206.959 555.242L152 815.347H539.683H927.367L872.408 555.242C862.34 505.729 823.885 466.944 774.538 455.721Z" fill="#0096FA"/>
<path d="M360.119 643.539L333.547 815.348H524.335L360.119 643.539Z" fill="url(#paint0_linear_18735_2998)"/>
<path d="M719.745 643.539L746.152 815.348H555.528L719.745 643.539Z" fill="url(#paint1_linear_18735_2998)"/>
<path d="M591.672 773.259H673.368C677.989 773.259 681.62 769.628 681.62 765.006V667.302H583.42V765.006C583.42 769.628 587.051 773.259 591.672 773.259Z" fill="#1968F0"/>
<path d="M668.582 53.5137H486.706L472.842 67.3772V409.509H607.186V354.715H668.582C674.028 349.269 676.999 346.298 682.445 340.851V67.5422L668.582 53.5137Z" fill="#F8BC9A"/>
<path d="M486.706 53.5137L472.843 67.3772L471.853 224.167L472.843 224.827L611.643 85.5318L682.446 171.023V67.3772L668.582 53.5137H486.706Z" fill="#141414"/>
<path d="M456.336 279.622H494.461V219.877H442.802V266.089C442.802 273.516 448.909 279.622 456.336 279.622Z" fill="#F8BC9A"/>
<path d="M504.035 279.621H472.842V352.24H504.035V279.621Z" fill="url(#paint2_linear_18735_2998)"/>
<path d="M559.653 373.695H607.186V354.715H559.653V373.695Z" fill="url(#paint3_linear_18735_2998)"/>
<path d="M607.02 417.596V373.695H472.676V417.596L450.89 423.208L532.586 511.67C536.547 515.961 543.149 515.961 547.11 511.67L628.805 423.208L607.02 417.596Z" fill="url(#paint4_linear_18735_2998)"/>
<path opacity="0.45" fill-rule="evenodd" clip-rule="evenodd" d="M627.811 202.917C629.063 202.368 630.523 202.938 631.073 204.19L661.77 274.167C662.106 274.933 662.033 275.816 661.576 276.516C661.119 277.216 660.339 277.638 659.503 277.638H625.835C624.467 277.638 623.359 276.529 623.359 275.162C623.359 273.795 624.467 272.686 625.835 272.686H655.714L626.538 206.179C625.989 204.927 626.559 203.466 627.811 202.917Z" fill="#F06305"/>
<path d="M458.153 732.497L347.245 726.556L334.371 809.902L368.7 828.387C385.369 834.493 403.029 836.639 420.688 834.823L472.181 829.542L458.153 732.497Z" fill="url(#paint5_linear_18735_2998)"/>
<path d="M783.286 1013.4L445.116 890.773C441.815 889.618 439.669 886.482 439.669 883.016V726.061C439.669 720.45 444.95 716.489 450.232 718.139L783.121 818.65" fill="url(#paint6_linear_18735_2998)"/>
<path d="M596.127 754.61L733.442 732.989L744.83 806.928L694.822 840.762C678.978 848.519 661.484 852.479 643.824 852.479H592.001L596.127 754.61Z" fill="url(#paint7_linear_18735_2998)"/>
<path d="M300.373 1013.4L638.544 890.773C641.845 889.618 643.99 886.482 643.99 883.016V726.061C643.99 720.45 638.709 716.489 633.428 718.139L300.538 818.65" fill="url(#paint8_linear_18735_2998)"/>
<mask id="mask0_18735_2998" style="mask-type:luminance" maskUnits="userSpaceOnUse" x="336" y="347" width="407" height="237">
<path d="M471.357 479.484H336.187L337.673 351.741H472.347L471.357 479.484ZM742.355 347.12H607.186V583.46H742.355V347.12Z" fill="white"/>
</mask>
<g mask="url(#mask0_18735_2998)">
<path fill-rule="evenodd" clip-rule="evenodd" d="M539.85 390.031C465.271 390.031 403.525 460.531 403.525 549.627H391.972C391.972 455.856 457.309 378.479 539.85 378.479C622.394 378.479 687.727 456.025 687.727 549.627V592.373H676.174V549.627C676.174 460.692 614.425 390.031 539.85 390.031Z" fill="#072F73"/>
</g>
<path d="M681.619 649.48C702.857 649.48 720.074 632.263 720.074 611.025C720.074 589.787 702.857 572.57 681.619 572.57C660.381 572.57 643.164 589.787 643.164 611.025C643.164 632.263 660.381 649.48 681.619 649.48Z" fill="#E0E0E0"/>
<path d="M681.619 632.15C693.286 632.15 702.744 622.692 702.744 611.025C702.744 599.358 693.286 589.899 681.619 589.899C669.952 589.899 660.493 599.358 660.493 611.025C660.493 622.692 669.952 632.15 681.619 632.15Z" fill="#F5F5F5"/>
<path fill-rule="evenodd" clip-rule="evenodd" d="M350.307 553.198C355.879 527.858 379.779 510.788 405.654 513.842C431.531 516.897 450.765 539.009 450.226 565.062L441.975 564.892C442.426 543.082 426.341 524.594 404.686 522.038C383.029 519.481 363.028 533.768 358.367 554.97L350.307 553.198Z" fill="#F5F5F5"/>
<path fill-rule="evenodd" clip-rule="evenodd" d="M353.482 513.233C359.235 487.066 383.916 469.439 410.634 472.593C437.356 475.748 457.219 498.584 456.662 525.486L456.662 525.504L453.857 643.487C453.857 643.491 453.857 643.495 453.857 643.498C453.636 654.294 446.319 663.732 436 666.742L435.979 666.748L408.417 674.67L405.225 663.566L432.766 655.651C432.769 655.65 432.772 655.649 432.775 655.648C438.291 654.035 442.192 648.957 442.306 643.256L442.307 643.234L445.112 525.247C445.112 525.245 445.112 525.243 445.112 525.241C445.542 504.283 430.087 486.523 409.28 484.066C388.469 481.61 369.251 495.336 364.768 515.704C364.767 515.708 364.766 515.711 364.766 515.714L339.844 631.081L339.839 631.103C338.6 636.622 341.166 642.365 346.299 645.281L371.225 659.477L365.507 669.516L340.591 655.326C331.207 649.994 326.182 639.245 328.561 628.597C328.563 628.589 328.565 628.581 328.566 628.573L353.482 513.233Z" fill="#072F73"/>
<path d="M364.406 675.555C372.154 675.555 378.435 669.274 378.435 661.527C378.435 653.779 372.154 647.498 364.406 647.498C356.658 647.498 350.377 653.779 350.377 661.527C350.377 669.274 356.658 675.555 364.406 675.555Z" fill="#072F73"/>
<path d="M411.279 681.001C419.026 681.001 425.307 674.721 425.307 666.973C425.307 659.225 419.026 652.944 411.279 652.944C403.531 652.944 397.25 659.225 397.25 666.973C397.25 674.721 403.531 681.001 411.279 681.001Z" fill="#072F73"/>
<path fill-rule="evenodd" clip-rule="evenodd" d="M453.101 435.274L445.385 444.952C436.503 456.093 429.07 469.798 424.193 480.495L419.059 491.758L396.533 481.489L401.667 470.226C407.023 458.477 415.435 442.805 426.028 429.519L433.744 419.841L453.101 435.274Z" fill="#35DE90"/>
<path fill-rule="evenodd" clip-rule="evenodd" d="M366.913 479.193C378.961 469.222 394.823 463.988 411.508 465.866L411.576 465.873L411.643 465.881C430.174 468.172 445.888 478.82 454.915 493.935L461.262 504.562L440.008 517.256L433.661 506.629C428.505 497.996 419.49 491.817 408.673 490.459C398.977 489.387 389.778 492.405 382.697 498.265L373.161 506.157L357.377 487.085L366.913 479.193Z" fill="#35DE90"/>
<defs>
<linearGradient id="paint0_linear_18735_2998" x1="452.815" y1="720.487" x2="314.504" y2="836.76" gradientUnits="userSpaceOnUse">
<stop offset="0.069479" stop-color="#0096FA"/>
<stop offset="0.3368" stop-color="#0274CE"/>
<stop offset="0.7613" stop-color="#06438D"/>
<stop offset="0.9616" stop-color="#072F73"/>
</linearGradient>
<linearGradient id="paint1_linear_18735_2998" x1="629.36" y1="722.73" x2="764.242" y2="832.351" gradientUnits="userSpaceOnUse">
<stop offset="0.069479" stop-color="#0096FA"/>
<stop offset="0.3368" stop-color="#0274CE"/>
<stop offset="0.7613" stop-color="#06438D"/>
<stop offset="0.9616" stop-color="#072F73"/>
</linearGradient>
<linearGradient id="paint2_linear_18735_2998" x1="516.332" y1="327.717" x2="436.923" y2="294.27" gradientUnits="userSpaceOnUse">
<stop stop-color="#F8BC9A" stop-opacity="0"/>
<stop offset="0.1621" stop-color="#F8BA96" stop-opacity="0.1621"/>
<stop offset="0.3263" stop-color="#F7B28A" stop-opacity="0.3263"/>
<stop offset="0.4917" stop-color="#F6A675" stop-opacity="0.4917"/>
<stop offset="0.6578" stop-color="#F59559" stop-opacity="0.6578"/>
<stop offset="0.8246" stop-color="#F37F34" stop-opacity="0.8246"/>
<stop offset="0.9897" stop-color="#F06508" stop-opacity="0.9897"/>
<stop offset="1" stop-color="#F06305"/>
</linearGradient>
<linearGradient id="paint3_linear_18735_2998" x1="563.47" y1="393.397" x2="604.468" y2="333.495" gradientUnits="userSpaceOnUse">
<stop stop-color="#F8BC9A" stop-opacity="0"/>
<stop offset="0.1621" stop-color="#F8BA96" stop-opacity="0.1621"/>
<stop offset="0.3263" stop-color="#F7B28A" stop-opacity="0.3263"/>
<stop offset="0.4917" stop-color="#F6A675" stop-opacity="0.4917"/>
<stop offset="0.6578" stop-color="#F59559" stop-opacity="0.6578"/>
<stop offset="0.8246" stop-color="#F37F34" stop-opacity="0.8246"/>
<stop offset="0.9897" stop-color="#F06508" stop-opacity="0.9897"/>
<stop offset="1" stop-color="#F06305"/>
</linearGradient>
<linearGradient id="paint4_linear_18735_2998" x1="540.442" y1="527.53" x2="539.609" y2="372.61" gradientUnits="userSpaceOnUse">
<stop offset="0.1245" stop-color="#E0E0E0"/>
<stop offset="1" stop-color="#F5F5F5"/>
</linearGradient>
<linearGradient id="paint5_linear_18735_2998" x1="334.765" y1="775.831" x2="561.623" y2="794.781" gradientUnits="userSpaceOnUse">
<stop stop-color="#F8BC9A"/>
<stop offset="0.2494" stop-color="#F6BB9A"/>
<stop offset="0.3888" stop-color="#EEB698"/>
<stop offset="0.5011" stop-color="#E0AE96"/>
<stop offset="0.5989" stop-color="#CCA293"/>
<stop offset="0.6874" stop-color="#B3938F"/>
<stop offset="0.769" stop-color="#93818A"/>
<stop offset="0.8455" stop-color="#6E6B84"/>
<stop offset="0.9179" stop-color="#43527D"/>
<stop offset="0.9846" stop-color="#133675"/>
<stop offset="1" stop-color="#072F73"/>
</linearGradient>
<linearGradient id="paint6_linear_18735_2998" x1="501.334" y1="703.224" x2="730.424" y2="1013.3" gradientUnits="userSpaceOnUse">
<stop stop-color="#F5F5F5"/>
<stop offset="0.0886688" stop-color="#EBEBEB"/>
<stop offset="0.1546" stop-color="#E0E0E0"/>
<stop offset="0.6015" stop-color="#EEEEEE"/>
<stop offset="0.9912" stop-color="#F5F5F5"/>
</linearGradient>
<linearGradient id="paint7_linear_18735_2998" x1="779.114" y1="783.685" x2="558.644" y2="806.545" gradientUnits="userSpaceOnUse">
<stop offset="0.3508" stop-color="#F8BC9A"/>
<stop offset="0.4549" stop-color="#F5BA99"/>
<stop offset="0.5411" stop-color="#EAB498"/>
<stop offset="0.621" stop-color="#D9AA95"/>
<stop offset="0.6971" stop-color="#C19C91"/>
<stop offset="0.7705" stop-color="#A1898C"/>
<stop offset="0.8419" stop-color="#7B7386"/>
<stop offset="0.9116" stop-color="#4D587E"/>
<stop offset="0.9783" stop-color="#193A76"/>
<stop offset="1" stop-color="#072F73"/>
</linearGradient>
<linearGradient id="paint8_linear_18735_2998" x1="363.818" y1="802.882" x2="605.464" y2="946.932" gradientUnits="userSpaceOnUse">
<stop offset="0.1646" stop-color="#F5F5F5"/>
<stop offset="0.4888" stop-color="#EDEDED"/>
<stop offset="0.8131" stop-color="#E0E0E0"/>
</linearGradient>
</defs>
</svg>
